(Exported by FreeCAD)
(Post Processor: PathScripts.post.grbl_post)
(Output Time:2019-04-16 16:47:12.183518)
(begin preamble)
G17 G90
G21
(begin operation: Profile_Faces)
(Path: Profile_Faces)
(Profile_Faces)
(Compensated Tool Path. Diameter: 3.17)
G0 Z5.5000
G0 X91.5778 Y100.1508
G0 Z3.5000
G1 X91.5778 Y100.1508 Z0.0000 F30.00
G3 X90.0000 Y101.5850 Z0.0000 I-1.5778 J-0.1508 F300.00
G1 X0.0000 Y101.5850 Z0.0000 F300.00
G3 X-1.5850 Y100.0000 Z0.0000 I0.0000 J-1.5850 F300.00
G1 X-1.5850 Y0.0000 Z0.0000 F300.00
G3 X0.0000 Y-1.5850 Z0.0000 I1.5850 J0.0000 F300.00
G1 X55.0000 Y-1.5850 Z0.0000 F300.00
G3 X56.5850 Y0.0000 Z0.0000 I-0.0000 J1.5850 F300.00
G1 X56.5850 Y12.4150 Z0.0000 F300.00
G1 X105.0000 Y12.4150 Z0.0000 F300.00
G3 X106.5850 Y14.0000 Z0.0000 I-0.0000 J1.5850 F300.00
G1 X106.5850 Y44.0000 Z0.0000 F300.00
G3 X105.0000 Y45.5850 Z0.0000 I-1.5850 J-0.0000 F300.00
G1 X91.5850 Y45.5850 Z0.0000 F300.00
G1 X91.5850 Y100.0000 Z0.0000 F300.00
G3 X91.5778 Y100.1508 Z0.0000 I-1.5850 J-0.0000 F300.00
G0 Z5.5000
(finish operation: Profile_Faces)
(begin postamble)
M5
G17 G90
; M2
